X:4
T: Rozmaringnak kétféle szokása
O: Ghymes (Nyitra), 1906
Q:1/4=112
M:4/4
L:1/4
K:Bb
G>^F GA | BcB<A | G2 D z | 
G>^F GA | BcB<A | G2 D z | 
d>d c<c | ddG2 | F2 =E/D/ z | 
G<A B<c | B<A G2 | D2 D/D/ z | 

